Hatter/scalable/apps/distributor-logo-centos.svg

<?xml version="1.0" encoding="UTF-8" standalone="no"?>
<svg
   width="64"
   height="64"
   viewBox="0 0 16.933 16.933"
   version="1.1"
   id="svg9"
   sodipodi:docname="distributor-logo-centos.svg"
   inkscape:version="1.3.2 (091e20ef0f, 2023-11-25)"
   xmlns:inkscape="http://www.inkscape.org/namespaces/inkscape"
   xmlns:sodipodi="http://sodipodi.sourceforge.net/DTD/sodipodi-0.dtd"
   xmlns="http://www.w3.org/2000/svg"
   xmlns:svg="http://www.w3.org/2000/svg">
  <defs
     id="defs9">
    <filter
       id="filter1057"
       x="-0.026999999"
       y="-0.026999999"
       width="1.054"
       height="1.054"
       color-interpolation-filters="sRGB">
      <feGaussianBlur
         stdDeviation="0.61875"
         id="feGaussianBlur1" />
    </filter>
    <linearGradient
       id="linearGradient1053"
       x1="-127"
       x2="-127"
       y1="60"
       y2="5"
       gradientTransform="matrix(0.26458,0,0,0.26458,34.7927,-0.13505003)"
       gradientUnits="userSpaceOnUse">
      <stop
         stop-color="#dee0e2"
         offset="0"
         id="stop1" />
      <stop
         stop-color="#f1f3f5"
         stop-opacity=".99608"
         offset="1"
         id="stop2" />
    </linearGradient>
  </defs>
  <sodipodi:namedview
     id="namedview9"
     pagecolor="#ffffff"
     bordercolor="#000000"
     borderopacity="0.25"
     inkscape:showpageshadow="2"
     inkscape:pageopacity="0.0"
     inkscape:pagecheckerboard="0"
     inkscape:deskcolor="#d1d1d1"
     inkscape:zoom="8.7062522"
     inkscape:cx="10.567119"
     inkscape:cy="41.292165"
     inkscape:window-width="1920"
     inkscape:window-height="1011"
     inkscape:window-x="0"
     inkscape:window-y="0"
     inkscape:window-maximized="1"
     inkscape:current-layer="svg9" />
  <rect
     transform="matrix(0.26458,0,0,0.26458,-6.016263e-5,-6.016263e-5)"
     x="4.5"
     y="4.5"
     width="55"
     height="55"
     ry="15"
     fill="#141414"
     filter="url(#filter1057)"
     opacity="0.3"
     stroke-linecap="round"
     stroke-width="2.7444"
     id="rect2" />
  <rect
     x="1.1905"
     y="1.1905"
     width="14.552"
     height="14.552"
     ry="3.9686999"
     fill="url(#linearGradient1053)"
     stroke-linecap="round"
     stroke-width="0.72611"
     id="rect3"
     style="fill:url(#linearGradient1053)" />
  <path
     fill="#efa724"
     d="M 8.4655417,2.4568367 7.0947853,3.8290514 h 0.985778 V 6.9817912 L 8.4655417,7.3682279 8.8519784,6.9817912 V 3.8290514 h 0.985778 z"
     id="path2"
     style="stroke-width:1.45825" />
  <path
     fill="#262577"
     d="M 13.09549,7.0867853 V 8.0740216 H 9.9442088 L 9.5577721,8.459 9.9442088,8.8454367 h 3.1527402 v 0.985778 l 1.372214,-1.3707564"
     id="path3"
     style="stroke-width:1.45825" />
  <path
     fill="#9ccd2a"
     d="M 8.4655417,9.5497721 8.0805633,9.9362088 V 13.088949 H 7.0933271 l 1.3722146,1.372214 1.3722147,-1.370756 H 8.8519784 V 9.9347505"
     id="path4"
     style="stroke-width:1.45825" />
  <path
     fill="#932279"
     d="M 3.8355931,7.0867853 2.4648367,8.459 3.8355931,9.8312147 V 8.8454367 H 6.9883329 L 7.3747696,8.459 6.9883329,8.0740216 H 3.8355931"
     id="path5"
     style="stroke-width:1.45825" />
  <path
     fill="#efa724"
     d="m 9.2369568,9.2318733 v 0.5453861 l 2.2296662,2.2296666 -0.697044,0.697044 h 1.939475 V 10.763037 L 12.013468,11.460082 9.7823429,9.2318733 Z m 1.0922302,0 1.684281,1.6828227 0.697044,-0.697045 V 9.2304151 H 10.329187 Z M 9.2369568,10.322645 v 2.381325 h 0.9872362 l 0.697044,-0.697044 -1.6828219,-1.684281 z"
     id="path6"
     style="stroke-width:1.45825" />
  <path
     fill="#262577"
     d="M 4.2220298,9.2318733 V 10.217651 L 4.919074,10.914696 6.6033545,9.2333316 H 4.2220298 Z m 2.9267108,0 -2.2311248,2.2282087 -0.695586,-0.697045 v 1.939475 H 6.1615043 L 5.4659184,12.006926 7.6941267,9.7758011 V 9.2333316 Z m 0.5453861,1.0907717 -1.6828223,1.684281 0.6970443,0.697044 h 0.985778 z"
     id="path7"
     style="stroke-width:1.45825" />
  <path
     fill="#932279"
     d="M 9.2369568,4.2154881 V 6.5968128 L 10.921237,4.9125323 10.224193,4.2154881 Z m 1.5326222,0 0.697044,0.6970442 -2.2282079,2.2296666 v 0.545386 h 0.545386 L 12.013468,5.4593766 12.710512,6.1564208 V 4.2154881 Z m 1.243889,1.7892746 -1.684281,1.6828222 h 2.381325 V 6.7018069 L 12.013468,6.0033044 Z"
     id="path8"
     style="stroke-width:1.45825" />
  <path
     fill="#9ccd2a"
     d="M 4.2220298,4.2154881 V 6.1549626 L 4.919074,5.4593766 7.1487406,7.6875849 H 7.6941267 V 7.1421989 L 5.4673766,4.9125323 6.1644208,4.2154881 Z m 2.4863189,0 -0.6985025,0.6970442 1.6842805,1.6842805 V 4.2154881 H 6.7068904 Z M 4.919074,6.0047627 4.2220298,6.7018069 v 0.985778 h 2.3813247 z"
     id="path9"
     style="stroke-width:1.45825" />
</svg>

<?xml version="1.0" encoding="UTF-8"?>
<svg id="svg9" width="64" height="64" version="1.1" viewBox="0 0 16.933 16.933" xmlns="http://www.w3.org/2000/svg">
 <defs id="defs9">
  <filter id="filter1057" x="-.027" y="-.027" width="1.054" height="1.054" color-interpolation-filters="sRGB">
   <feGaussianBlur id="feGaussianBlur1" stdDeviation="0.61875"/>
  </filter>
  <linearGradient id="linearGradient1053" x1="-127" x2="-127" y1="60" y2="5" gradientTransform="matrix(.26458 0 0 .26458 34.793 -.13505)" gradientUnits="userSpaceOnUse">
   <stop id="stop1" stop-color="#dee0e2" offset="0"/>
   <stop id="stop2" stop-color="#f1f3f5" stop-opacity=".99608" offset="1"/>
  </linearGradient>
 </defs>
 <rect id="rect2" transform="matrix(.26458 0 0 .26458 -6.0163e-5 -6.0163e-5)" x="4.5" y="4.5" width="55" height="55" ry="15" fill="#141414" filter="url(#filter1057)" opacity=".3" stroke-linecap="round" stroke-width="2.7444"/>
 <rect id="rect3" x="1.1905" y="1.1905" width="14.552" height="14.552" ry="3.9687" fill="url(#linearGradient1053)" stroke-linecap="round" stroke-width=".72611"/>
 <path id="path2" d="m8.4655 2.4568-1.3708 1.3722h0.98578v3.1527l0.38498 0.38644 0.38644-0.38644v-3.1527h0.98578z" fill="#efa724" stroke-width="1.4582"/>
 <path id="path3" d="m13.095 7.0868v0.98724h-3.1513l-0.38644 0.38498 0.38644 0.38644h3.1527v0.98578l1.3722-1.3708" fill="#262577" stroke-width="1.4582"/>
 <path id="path4" d="m8.4655 9.5498-0.38498 0.38644v3.1527h-0.98724l1.3722 1.3722 1.3722-1.3708h-0.98578v-3.1557" fill="#9ccd2a" stroke-width="1.4582"/>
 <path id="path5" d="m3.8356 7.0868-1.3708 1.3722 1.3708 1.3722v-0.98578h3.1527l0.38644-0.38644-0.38644-0.38498h-3.1527" fill="#932279" stroke-width="1.4582"/>
 <path id="path6" d="m9.237 9.2319v0.54539l2.2297 2.2297-0.69704 0.69704h1.9395v-1.9409l-0.69559 0.69704-2.2311-2.2282zm1.0922 0 1.6843 1.6828 0.69704-0.69704v-0.98724h-2.3813zm-1.0922 1.0908v2.3813h0.98724l0.69704-0.69704-1.6828-1.6843z" fill="#efa724" stroke-width="1.4582"/>
 <path id="path7" d="m4.222 9.2319v0.98578l0.69704 0.69704 1.6843-1.6814h-2.3813zm2.9267 0-2.2311 2.2282-0.69559-0.69704v1.9395h1.9395l-0.69559-0.69559 2.2282-2.2311v-0.54247zm0.54539 1.0908-1.6828 1.6843 0.69704 0.69704h0.98578z" fill="#262577" stroke-width="1.4582"/>
 <path id="path8" d="m9.237 4.2155v2.3813l1.6843-1.6843-0.69704-0.69704zm1.5326 0 0.69704 0.69704-2.2282 2.2297v0.54539h0.54539l2.2297-2.2282 0.69704 0.69704v-1.9409zm1.2439 1.7893-1.6843 1.6828h2.3813v-0.98578l-0.69704-0.6985z" fill="#932279" stroke-width="1.4582"/>
 <path id="path9" d="m4.222 4.2155v1.9395l0.69704-0.69559 2.2297 2.2282h0.54539v-0.54539l-2.2268-2.2297 0.69704-0.69704zm2.4863 0-0.6985 0.69704 1.6843 1.6843v-2.3813h-0.98724zm-1.7893 1.7893-0.69704 0.69704v0.98578h2.3813z" fill="#9ccd2a" stroke-width="1.4582"/>
</svg>
